src/assets/images/uds_portal_logo.svg

<svg width="160" height="48" viewBox="0 0 160 48" fill="none" xmlns="http://www.w3.org/2000/svg">
<path fill-rule="evenodd" clip-rule="evenodd" d="M33.9062 47.27H64.9053V2H33.9062V47.27Z" fill="#FF8F3E"/>
<path fill-rule="evenodd" clip-rule="evenodd" d="M0 47.27H30.999V2H0V47.27Z" fill="#383680"/>
<path fill-rule="evenodd" clip-rule="evenodd" d="M67.8086 47.27H98.8076V2H67.8086V47.27Z" fill="#383680"/>
<path fill-rule="evenodd" clip-rule="evenodd" d="M14.9571 35.9314C13.4809 35.9314 12.1032 35.7333 10.7255 35.238C9.44619 34.7427 8.26527 34.1484 7.28111 33.3559C6.29702 32.5634 5.50977 31.5728 5.01772 30.5822C4.4273 29.4926 4.23047 28.4029 4.23047 27.2142V13.7422H9.15091V27.1152C9.15091 27.8086 9.34774 28.4029 9.64295 28.9973C9.93823 29.5916 10.3318 30.087 10.9223 30.4832C11.4144 30.8794 12.1032 31.2756 12.7921 31.4738C13.4809 31.6719 14.2682 31.87 15.0555 31.87C15.8428 31.87 16.6301 31.7709 17.3189 31.4738C18.0078 31.1766 18.5983 30.8794 19.1887 30.4832C19.6807 30.087 20.1728 29.4926 20.4681 28.9973C20.7633 28.4029 20.9601 27.8086 20.9601 27.1152V13.7422H25.8805V27.1152C25.8805 28.3039 25.5853 29.4926 25.0933 30.4832C24.5028 31.5728 23.814 32.4643 22.8298 33.2568C21.8457 34.0493 20.6648 34.6436 19.3855 35.139C17.9094 35.6343 16.4333 35.9314 14.9571 35.9314Z" fill="white"/>
<path fill-rule="evenodd" clip-rule="evenodd" d="M39.3633 31.4202V35.4783V35.6764H47.4329C48.7122 35.6764 49.8931 35.5774 51.074 35.2802C52.2549 35.0821 53.3375 34.6859 54.3216 34.1905C55.3057 33.6952 56.2897 33.1009 57.0771 32.4075C57.8643 31.7141 58.5532 30.9216 59.1436 30.1291C59.7341 29.2376 60.2262 28.3461 60.5214 27.4545C60.8166 26.4639 61.0134 25.4733 61.0134 24.4827C61.0134 23.3931 60.8166 22.4025 60.5214 21.5109C60.2262 20.5204 59.7341 19.6288 59.1436 18.8364C58.5532 17.9448 57.8643 17.2514 57.0771 16.558C56.1914 15.8646 55.3057 15.2702 54.3216 14.775C53.3375 14.2797 52.2549 13.9825 51.074 13.6853C49.8931 13.3881 48.7122 13.2891 47.4329 13.2891H39.3633V28.418H44.3822V17.1524H47.4329C48.6138 17.1524 49.7947 17.3505 50.7788 17.7467C51.8613 18.0439 52.747 18.6383 53.5343 19.2326C54.3216 19.926 54.912 20.6195 55.4041 21.5109C55.8961 22.4025 56.0929 23.294 56.0929 24.2847C56.0929 25.2752 55.8961 26.1668 55.4041 27.0583C54.912 27.9498 54.3216 28.7423 53.5343 29.3366C52.747 29.931 51.7629 30.4263 50.7788 30.8225C49.6963 31.2188 48.6138 31.4169 47.4329 31.4169H45.382V31.4202H39.3633Z" fill="white"/>
<path fill-rule="evenodd" clip-rule="evenodd" d="M73.1168 35.6343V31.6718H85.1228C85.5164 31.6718 85.91 31.5728 86.3037 31.4738C86.6973 31.3747 86.9925 31.1766 87.2878 30.9784C87.583 30.7804 87.7798 30.4832 87.9767 30.186C88.1734 29.8888 88.1734 29.4926 88.1734 29.1954C88.1734 28.8982 88.075 28.502 87.9767 28.2048C87.7798 27.9076 87.583 27.6104 87.2878 27.4123C86.9925 27.2142 86.6973 27.0161 86.3037 26.917C85.91 26.818 85.5164 26.7189 85.1228 26.7189H79.6118C78.5293 26.7189 77.4468 26.5208 76.4627 26.2236C75.4786 25.8274 74.6913 25.4311 73.9041 24.8368C73.2152 24.2424 72.6247 23.549 72.2311 22.7565C71.8375 21.9641 71.6406 21.0725 71.6406 20.181C71.6406 19.2895 71.8375 18.3979 72.2311 17.7045C72.6247 16.912 73.2152 16.2186 73.9041 15.6243C74.593 15.0299 75.4786 14.5347 76.4627 14.2375C77.4468 13.8413 78.4309 13.7422 79.6118 13.7422H92.0114V17.7045H79.6118C79.2182 17.7045 78.8245 17.8036 78.4309 17.9027C78.0373 18.0017 77.7421 18.1998 77.4468 18.3979C77.1516 18.5961 76.9547 18.8932 76.758 19.1904C76.5611 19.4876 76.5611 19.8838 76.5611 20.181C76.5611 20.5772 76.6595 20.8744 76.758 21.1716C76.9547 21.4688 77.1516 21.7659 77.4468 21.9641C77.7421 22.1622 78.0373 22.3603 78.4309 22.4593C78.8245 22.5584 79.2182 22.6575 79.6118 22.6575H85.1228C86.2052 22.6575 87.2878 22.8556 88.2719 23.1528C89.256 23.45 90.1417 23.9452 90.8305 24.5396C91.5193 25.134 92.1098 25.8274 92.5035 26.6199C92.8971 27.4123 93.0939 28.3039 93.0939 29.1954C93.0939 30.087 92.8971 30.9784 92.5035 31.6718C92.1098 32.4643 91.5193 33.1577 90.8305 33.7521C90.1417 34.3465 89.256 34.8418 88.2719 35.139C87.2878 35.5352 86.2052 35.6343 85.1228 35.6343H73.1168Z" fill="white"/>
<path d="M111.536 3.6C112.624 3.6 113.48 3.86 114.104 4.38C114.728 4.9 115.04 5.616 115.04 6.528C115.04 7.44 114.728 8.156 114.104 8.676C113.48 9.196 112.624 9.456 111.536 9.456H109.46V12H108.26V3.6H111.536ZM111.5 8.412C112.26 8.412 112.84 8.252 113.24 7.932C113.64 7.604 113.84 7.136 113.84 6.528C113.84 5.92 113.64 5.456 113.24 5.136C112.84 4.808 112.26 4.644 111.5 4.644H109.46V8.412H111.5ZM121.312 12.096C120.464 12.096 119.7 11.912 119.02 11.544C118.34 11.168 117.804 10.652 117.412 9.996C117.028 9.34 116.836 8.608 116.836 7.8C116.836 6.992 117.028 6.26 117.412 5.604C117.804 4.948 118.34 4.436 119.02 4.068C119.7 3.692 120.464 3.504 121.312 3.504C122.152 3.504 122.912 3.692 123.592 4.068C124.272 4.436 124.804 4.948 125.188 5.604C125.572 6.252 125.764 6.984 125.764 7.8C125.764 8.616 125.572 9.352 125.188 10.008C124.804 10.656 124.272 11.168 123.592 11.544C122.912 11.912 122.152 12.096 121.312 12.096ZM121.312 11.028C121.928 11.028 122.48 10.888 122.968 10.608C123.464 10.328 123.852 9.944 124.132 9.456C124.42 8.96 124.564 8.408 124.564 7.8C124.564 7.192 124.42 6.644 124.132 6.156C123.852 5.66 123.464 5.272 122.968 4.992C122.48 4.712 121.928 4.572 121.312 4.572C120.696 4.572 120.136 4.712 119.632 4.992C119.136 5.272 118.744 5.66 118.456 6.156C118.176 6.644 118.036 7.192 118.036 7.8C118.036 8.408 118.176 8.96 118.456 9.456C118.744 9.944 119.136 10.328 119.632 10.608C120.136 10.888 120.696 11.028 121.312 11.028ZM133.814 12L132.002 9.42C131.778 9.436 131.602 9.444 131.474 9.444H129.398V12H128.198V3.6H131.474C132.562 3.6 133.418 3.86 134.042 4.38C134.666 4.9 134.978 5.616 134.978 6.528C134.978 7.176 134.818 7.728 134.498 8.184C134.178 8.64 133.722 8.972 133.13 9.18L135.122 12H133.814ZM131.438 8.424C132.198 8.424 132.778 8.26 133.178 7.932C133.578 7.604 133.778 7.136 133.778 6.528C133.778 5.92 133.578 5.456 133.178 5.136C132.778 4.808 132.198 4.644 131.438 4.644H129.398V8.424H131.438ZM139.068 4.644H136.188V3.6H143.136V4.644H140.256V12H139.068V4.644ZM149.973 9.9H145.509L144.585 12H143.349L147.153 3.6H148.341L152.157 12H150.897L149.973 9.9ZM149.553 8.94L147.741 4.824L145.929 8.94H149.553ZM154.01 3.6H155.21V10.956H159.758V12H154.01V3.6Z" fill="#383680"/>
</svg>

<svg width="160" height="48" fill="none" xmlns="http://www.w3.org/2000/svg"><path fill-rule="evenodd" clip-rule="evenodd" d="M33.906 47.27h31V2h-31v45.27z" fill="#FF8F3E"/><path fill-rule="evenodd" clip-rule="evenodd" d="M0 47.27h30.999V2H0v45.27zM67.809 47.27h30.999V2h-31v45.27z" fill="#383680"/><path fill-rule="evenodd" clip-rule="evenodd" d="M14.957 35.931c-1.476 0-2.854-.198-4.232-.693-1.279-.495-2.46-1.09-3.444-1.882-.984-.793-1.771-1.783-2.263-2.774-.59-1.09-.788-2.18-.788-3.368V13.742h4.92v13.373c0 .694.198 1.288.493 1.882.295.595.689 1.09 1.28 1.486.491.396 1.18.793 1.87.99.688.199 1.475.397 2.263.397.787 0 1.574-.1 2.263-.396.689-.297 1.28-.595 1.87-.99.492-.397.984-.991 1.28-1.487.294-.594.491-1.188.491-1.882V13.742h4.92v13.373a7.704 7.704 0 01-.787 3.368c-.59 1.09-1.279 1.981-2.263 2.774-.984.792-2.165 1.387-3.444 1.882-1.477.495-2.953.792-4.429.792zM39.363 31.42v4.256h8.07c1.28 0 2.46-.099 3.641-.396a11.415 11.415 0 003.248-1.09c.984-.495 1.968-1.09 2.755-1.782a14.889 14.889 0 002.067-2.279c.59-.891 1.082-1.783 1.377-2.675.296-.99.492-1.98.492-2.971 0-1.09-.196-2.08-.492-2.972-.295-.99-.787-1.882-1.377-2.675-.59-.891-1.28-1.585-2.067-2.278-.886-.693-1.771-1.288-2.755-1.783-.985-.495-2.067-.793-3.248-1.09-1.18-.297-2.362-.396-3.641-.396h-8.07v15.129h5.02V17.152h3.05c1.18 0 2.362.198 3.346.595 1.082.297 1.968.891 2.755 1.486.788.693 1.378 1.386 1.87 2.278.492.892.689 1.783.689 2.774 0 .99-.197 1.882-.689 2.773-.492.892-1.082 1.684-1.87 2.279-.787.594-1.771 1.09-2.755 1.486a9.525 9.525 0 01-3.346.594h-2.051v.003h-6.019zM73.117 35.634v-3.962h12.006c.393 0 .787-.1 1.18-.198.394-.1.69-.297.985-.496.295-.198.492-.495.689-.792.196-.297.196-.693.196-.99 0-.298-.098-.694-.196-.991-.197-.297-.394-.595-.69-.793-.294-.198-.59-.396-.983-.495-.394-.099-.788-.198-1.181-.198h-5.511c-1.083 0-2.165-.198-3.15-.495-.983-.397-1.77-.793-2.558-1.387-.689-.595-1.28-1.288-1.673-2.08a5.811 5.811 0 01-.59-2.576c0-.892.197-1.783.59-2.477.394-.792.984-1.485 1.673-2.08a7.093 7.093 0 012.559-1.386c.984-.397 1.968-.496 3.149-.496h12.4v3.962h-12.4c-.394 0-.787.1-1.181.199s-.689.297-.984.495c-.295.198-.492.495-.689.792-.197.298-.197.694-.197.991 0 .396.098.693.197.99.197.298.394.595.689.793.295.198.59.396.984.495.394.1.787.198 1.18.198h5.512c1.082 0 2.165.199 3.149.496s1.87.792 2.558 1.387c.69.594 1.28 1.287 1.674 2.08.393.792.59 1.684.59 2.575 0 .892-.197 1.783-.59 2.477-.394.792-.985 1.486-1.674 2.08a7.092 7.092 0 01-2.558 1.387c-.984.396-2.067.495-3.15.495H73.118z" fill="#fff"/><path d="M111.536 3.6c1.088 0 1.944.26 2.568.78.624.52.936 1.236.936 2.148 0 .912-.312 1.628-.936 2.148-.624.52-1.48.78-2.568.78h-2.076V12h-1.2V3.6h3.276zm-.036 4.812c.76 0 1.34-.16 1.74-.48.4-.328.6-.796.6-1.404 0-.608-.2-1.072-.6-1.392-.4-.328-.98-.492-1.74-.492h-2.04v3.768h2.04zm9.812 3.684c-.848 0-1.612-.184-2.292-.552a4.212 4.212 0 01-1.608-1.548 4.266 4.266 0 01-.576-2.196c0-.808.192-1.54.576-2.196a4.124 4.124 0 011.608-1.536c.68-.376 1.444-.564 2.292-.564.84 0 1.6.188 2.28.564a4.04 4.04 0 011.596 1.536c.384.648.576 1.38.576 2.196 0 .816-.192 1.552-.576 2.208a4.151 4.151 0 01-1.596 1.536c-.68.368-1.44.552-2.28.552zm0-1.068c.616 0 1.168-.14 1.656-.42.496-.28.884-.664 1.164-1.152a3.238 3.238 0 00.432-1.656c0-.608-.144-1.156-.432-1.644a3.014 3.014 0 00-1.164-1.164 3.267 3.267 0 00-1.656-.42 3.4 3.4 0 00-1.68.42 3.1 3.1 0 00-1.176 1.164 3.244 3.244 0 00-.42 1.644c0 .608.14 1.16.42 1.656.288.488.68.872 1.176 1.152a3.4 3.4 0 001.68.42zm12.502.972l-1.812-2.58c-.224.016-.4.024-.528.024h-2.076V12h-1.2V3.6h3.276c1.088 0 1.944.26 2.568.78.624.52.936 1.236.936 2.148 0 .648-.16 1.2-.48 1.656-.32.456-.776.788-1.368.996l1.992 2.82h-1.308zm-2.376-3.576c.76 0 1.34-.164 1.74-.492.4-.328.6-.796.6-1.404 0-.608-.2-1.072-.6-1.392-.4-.328-.98-.492-1.74-.492h-2.04v3.78h2.04zm7.63-3.78h-2.88V3.6h6.948v1.044h-2.88V12h-1.188V4.644zM149.973 9.9h-4.464l-.924 2.1h-1.236l3.804-8.4h1.188l3.816 8.4h-1.26l-.924-2.1zm-.42-.96l-1.812-4.116-1.812 4.116h3.624zm4.457-5.34h1.2v7.356h4.548V12h-5.748V3.6z" fill="#383680"/></svg>
